2/images/PSW-3.svg

<svg width="318" height="275" viewBox="0 0 318 275" fill="none" xmlns="http://www.w3.org/2000/svg">
<g id="PSW-3">
<path id="Stroke 1" fill-rule="evenodd" clip-rule="evenodd" d="M35.25 1.00024H12.75L1.5 20.4852L12.75 39.9712H35.25L46.5 20.4852L35.25 1.00024Z" stroke="#1A1A1A" stroke-width="2" stroke-linecap="round" stroke-linejoin="round"/>
<path id="Stroke 3" fill-rule="evenodd" clip-rule="evenodd" d="M80.25 59.4568H57.75L46.5 78.9418L57.75 98.4278H80.25L91.5 78.9418L80.25 59.4568Z" stroke="#1A1A1A" stroke-width="2" stroke-linecap="round" stroke-linejoin="round"/>
<path id="Stroke 4" fill-rule="evenodd" clip-rule="evenodd" d="M170.25 59.4568H147.75L136.5 78.9418L147.75 98.4278H170.25L181.5 78.9418L170.25 59.4568Z" stroke="#1A1A1A" stroke-width="2" stroke-linecap="round" stroke-linejoin="round"/>
<path id="Stroke 5" fill-rule="evenodd" clip-rule="evenodd" d="M260.25 59.4568H237.75L226.5 78.9418L237.75 98.4278H260.25L271.5 78.9418L260.25 59.4568Z" stroke="#1A1A1A" stroke-width="2" stroke-linecap="round" stroke-linejoin="round"/>
<g id="Group 14">
<path id="Stroke 6" fill-rule="evenodd" clip-rule="evenodd" d="M125.25 1.00024H102.75L91.5 20.4852L102.75 39.9712H125.25L136.5 20.4852L125.25 1.00024Z" stroke="#1A1A1A" stroke-width="2" stroke-linecap="round" stroke-linejoin="round"/>
<path id="Stroke 8" fill-rule="evenodd" clip-rule="evenodd" d="M215.25 1.00024H192.75L181.5 20.4852L192.75 39.9712H215.25L226.5 20.4852L215.25 1.00024Z" stroke="#1A1A1A" stroke-width="2" stroke-linecap="round" stroke-linejoin="round"/>
<path id="Stroke 10" fill-rule="evenodd" clip-rule="evenodd" d="M305.25 1.00024H282.75L271.5 20.4852L282.75 39.9712H305.25L316.5 20.4852L305.25 1.00024Z" stroke="#1A1A1A" stroke-width="2" stroke-linecap="round" stroke-linejoin="round"/>
<path id="Stroke 12" fill-rule="evenodd" clip-rule="evenodd" d="M35.25 117.913H12.75L1.5 137.399L12.75 156.884H35.25L46.5 137.399L35.25 117.913Z" stroke="#1A1A1A" stroke-width="2" stroke-linecap="round" stroke-linejoin="round"/>
</g>
<path id="Stroke 15" fill-rule="evenodd" clip-rule="evenodd" d="M80.25 176.37H57.75L46.5 195.856L57.75 215.342H80.25L91.5 195.856L80.25 176.37Z" stroke="#1A1A1A" stroke-width="2" stroke-linecap="round" stroke-linejoin="round"/>
<path id="Stroke 16" fill-rule="evenodd" clip-rule="evenodd" d="M170.25 176.37H147.75L136.5 195.856L147.75 215.342H170.25L181.5 195.856L170.25 176.37Z" stroke="#1A1A1A" stroke-width="2" stroke-linecap="round" stroke-linejoin="round"/>
<path id="Stroke 17" fill-rule="evenodd" clip-rule="evenodd" d="M260.25 176.37H237.75L226.5 195.856L237.75 215.342H260.25L271.5 195.856L260.25 176.37Z" stroke="#1A1A1A" stroke-width="2" stroke-linecap="round" stroke-linejoin="round"/>
<path id="Stroke 18" fill-rule="evenodd" clip-rule="evenodd" d="M215.25 117.913H192.75L181.5 137.399L192.75 156.884H215.25L226.5 137.399L215.25 117.913Z" stroke="#1A1A1A" stroke-width="2" stroke-linecap="round" stroke-linejoin="round"/>
<g id="Group 29">
<path id="Stroke 19" fill-rule="evenodd" clip-rule="evenodd" d="M305.25 117.913H282.75L271.5 137.399L282.75 156.884H305.25L316.5 137.399L305.25 117.913Z" stroke="#1A1A1A" stroke-width="2" stroke-linecap="round" stroke-linejoin="round"/>
<path id="Stroke 21" fill-rule="evenodd" clip-rule="evenodd" d="M35.25 234.827H12.75L1.5 254.312L12.75 273.798H35.25L46.5 254.312L35.25 234.827Z" stroke="#1A1A1A" stroke-width="2" stroke-linecap="round" stroke-linejoin="round"/>
<path id="Stroke 23" fill-rule="evenodd" clip-rule="evenodd" d="M125.25 234.827H102.75L91.5 254.312L102.75 273.798H125.25L136.5 254.312L125.25 234.827Z" stroke="#1A1A1A" stroke-width="2" stroke-linecap="round" stroke-linejoin="round"/>
<path id="Stroke 25" fill-rule="evenodd" clip-rule="evenodd" d="M215.25 234.827H192.75L181.5 254.312L192.75 273.798H215.25L226.5 254.312L215.25 234.827Z" stroke="#1A1A1A" stroke-width="2" stroke-linecap="round" stroke-linejoin="round"/>
<path id="Stroke 27" fill-rule="evenodd" clip-rule="evenodd" d="M305.25 234.827H282.75L271.5 254.312L282.75 273.798H305.25L316.5 254.312L305.25 234.827Z" stroke="#1A1A1A" stroke-width="2" stroke-linecap="round" stroke-linejoin="round"/>
</g>
<path id="Stroke 30" fill-rule="evenodd" clip-rule="evenodd" d="M113.999 152.134L127.718 128.374H100.281L113.999 152.134Z" stroke="#1A1A1A" stroke-width="2" stroke-linecap="round" stroke-linejoin="round"/>
<g id="Group 47">
<path id="Stroke 31" d="M75.5234 129.913C76.0014 127.443 76.7184 125.009 77.6754 122.65C78.6314 120.291 79.8284 118.006 81.2624 115.833C82.6984 113.66 84.3724 111.598 86.2854 109.684C88.1984 107.771 90.2604 106.097 92.4334 104.662C94.6074 103.227 96.8924 102.031 99.2514 101.074C101.61 100.118 104.044 99.3999 106.514 98.9219" stroke="#B2B2B2" stroke-width="2" stroke-linecap="round" stroke-linejoin="round"/>
<path id="Stroke 33" d="M106.514 175.877C104.043 175.398 101.61 174.681 99.2504 173.725C96.8924 172.768 94.6074 171.572 92.4334 170.137C90.2604 168.702 88.1984 167.027 86.2854 165.114C84.3714 163.201 82.6984 161.139 81.2624 158.966C79.8274 156.792 78.6314 154.508 77.6754 152.148C76.7184 149.789 76.0004 147.356 75.5234 144.886" stroke="#B2B2B2" stroke-width="2" stroke-linecap="round" stroke-linejoin="round"/>
<path id="Stroke 35" d="M152.477 144.885C151.999 147.355 151.282 149.788 150.325 152.148C149.369 154.507 148.172 156.791 146.738 158.965C145.302 161.138 143.628 163.2 141.715 165.114C139.801 167.027 137.74 168.701 135.566 170.136C133.393 171.572 131.108 172.767 128.748 173.724C126.39 174.68 123.957 175.398 121.486 175.876" stroke="#B2B2B2" stroke-width="2" stroke-linecap="round" stroke-linejoin="round"/>
<path id="Stroke 37" d="M121.486 98.9216C123.957 99.4006 126.39 100.118 128.749 101.074C131.108 102.031 133.393 103.227 135.566 104.662C137.74 106.097 139.801 107.771 141.715 109.684C143.629 111.598 145.302 113.66 146.738 115.833C148.173 118.006 149.369 120.291 150.325 122.651C151.282 125.009 152 127.443 152.477 129.913" stroke="#B2B2B2" stroke-width="2" stroke-linecap="round" stroke-linejoin="round"/>
<path id="Stroke 39" d="M137.518 137.399H169.727" stroke="#B2B2B2" stroke-width="2" stroke-linecap="round" stroke-linejoin="round"/>
<path id="Stroke 41" d="M58.2734 137.399H90.4824" stroke="#B2B2B2" stroke-width="2" stroke-linecap="round" stroke-linejoin="round"/>
<path id="Stroke 43" d="M114 81.6726V113.882" stroke="#B2B2B2" stroke-width="2" stroke-linecap="round" stroke-linejoin="round"/>
<path id="Stroke 45" d="M114 160.916V193.126" stroke="#B2B2B2" stroke-width="2" stroke-linecap="round" stroke-linejoin="round"/>
</g>
</g>
</svg>

<svg width="318" height="275" fill="none" xmlns="http://www.w3.org/2000/svg"><g stroke-width="2" stroke-linecap="round" stroke-linejoin="round"><path clip-rule="evenodd" d="M35.25 1h-22.5L1.5 20.49l11.25 19.48h22.5L46.5 20.5 35.25 1zM80.25 59.46h-22.5L46.5 78.94l11.25 19.49h22.5L91.5 78.94 80.25 59.46zM170.25 59.46h-22.5L136.5 78.94l11.25 19.49h22.5l11.25-19.49-11.25-19.48zM260.25 59.46h-22.5L226.5 78.94l11.25 19.49h22.5l11.25-19.49-11.25-19.48z" stroke="#1A1A1A"/><g clip-rule="evenodd" stroke="#1A1A1A"><path d="M125.25 1h-22.5L91.5 20.49l11.25 19.48h22.5L136.5 20.5 125.25 1zM215.25 1h-22.5L181.5 20.49l11.25 19.48h22.5L226.5 20.5 215.25 1zM305.25 1h-22.5L271.5 20.49l11.25 19.48h22.5L316.5 20.5 305.25 1zM35.25 117.91h-22.5L1.5 137.4l11.25 19.48h22.5L46.5 137.4 35.25 117.9z"/></g><path clip-rule="evenodd" d="M80.25 176.37h-22.5L46.5 195.86l11.25 19.48h22.5l11.25-19.48-11.25-19.49zM170.25 176.37h-22.5l-11.25 19.49 11.25 19.48h22.5l11.25-19.48-11.25-19.49zM260.25 176.37h-22.5l-11.25 19.49 11.25 19.48h22.5l11.25-19.48-11.25-19.49zM215.25 117.91h-22.5L181.5 137.4l11.25 19.48h22.5l11.25-19.48-11.25-19.49z" stroke="#1A1A1A"/><g clip-rule="evenodd" stroke="#1A1A1A"><path d="M305.25 117.91h-22.5L271.5 137.4l11.25 19.48h22.5l11.25-19.48-11.25-19.49zM35.25 234.83h-22.5L1.5 254.3l11.25 19.49h22.5L46.5 254.3l-11.25-19.48zM125.25 234.83h-22.5L91.5 254.3l11.25 19.49h22.5l11.25-19.49-11.25-19.48zM215.25 234.83h-22.5L181.5 254.3l11.25 19.49h22.5l11.25-19.49-11.25-19.48zM305.25 234.83h-22.5L271.5 254.3l11.25 19.49h22.5l11.25-19.49-11.25-19.48z"/></g><path clip-rule="evenodd" d="M114 152.13l13.72-23.76h-27.44L114 152.13z" stroke="#1A1A1A"/><g stroke="#B2B2B2"><path d="M75.52 129.91a39.06 39.06 0 0116.91-25.25 38.96 38.96 0 0114.08-5.74M106.51 175.88a39.21 39.21 0 01-14.08-5.74 39.4 39.4 0 01-16.9-25.25M152.48 144.88a39.09 39.09 0 01-23.73 28.84c-2.36.96-4.8 1.68-7.26 2.16M121.49 98.92a39.2 39.2 0 0128.83 23.73c.96 2.36 1.68 4.8 2.16 7.26M137.52 137.4h32.2M58.27 137.4h32.21M114 81.67v32.21M114 160.92v32.2"/></g></g></svg>
